!!!!SEGMENT: pl-wtm--r-410-m_moniuszko-stanislaw--paria-piesn-neali.krn
!!!cenid: 18xx:3034
!!!COM: Moniuszko, Stanisław
!!!COM-rism: pe30008351
!!!CDT: 1819/05/05-1872/06/04
!!!CNT: Polish
!!!OTL: Paria - Pieśń Neali
!!!PDT:
!!!AGN: Secular
!!!SMS-siglum: PL-Wtm
!!!SMS-shelfmark: R 410/M
!!!NIFC-rismID: 1001090960
!!!URL-scan: http://repozytorium.nifc.pl/skany/pl-wtm-nut--r410m
!!!ONB-nifc:
!!!SMS-variant:
!!!SMS-altvar:
**kern	**kern	**dynam	**kern	**text	**text	**dynam
*group2	*group2	*	*group1	*group1	*group1	*
*part2	*part2	*part2	*part1	*part1	*part1	*part1
*staff3	*staff2	*	*staff1	*	*	*
*	*I"[Piano]	*	*I"[Soprano]	*	*	*
*clefF4	*clefG2	*	*clefG2	*	*	*
*k[f#]	*k[f#]	*	*k[f#]	*	*	*
*M4/4	*M4/4	*	*M4/4	*	*	*
*met(c)	*met(c)	*	*met(c)	*	*	*
=1	=1	=1	=1	=1	=1	=1
*all\right	*all\right	*	*all\right	*	*	*
!LO:TX:t=P:problem:all\right:global	!LO:TX:t=P:problem:all\right:global	!	!LO:TX:t=P:problem:all\right:global	!	!	!
*2\right	*	*	*	*	*	*
!	!	!LO:DY:rj	!	!	!	!
[<2BB\	(<2F#</ (>2B (>2d	pp	1r	.	.	.
4BB\]	4B</) 4d) 4f#)	.	.	.	.	.
4r	4r	.	.	.	.	.
=2	=2	=2	=2	=2	=2	=2
!	!	!	!LO:TX:a:t=lento	!	!	!LO:DY:a:rj
1r	1r	.	4.b\	Pa-	.	p
.	.	.	8a\	-ri-	.	.
.	.	.	4cc\	-a!	.	.
.	.	.	8r	.	.	.
!	!	!	!LO:TX:a:t=piu	!	!	!
.	.	.	8cc\	on	.	.
=3	=3	=3	=3	=3	=3	=3
!	!	!	!	!	!	!LO:DY:a:rj
1r	1r	.	8.cc\	Pa-	.	f
.	.	.	16b\	-ri-	.	.
.	.	.	4dd\	-a!!..	.	.
.	.	.	4r	.	.	.
.	.	.	8r	.	.	.
!	!	!	!LO:TX:a:t=Recit	!	!	!
.	.	.	8dd\	oh!	.	.
=4	=4	=4	=4	=4	=4	=4
(>2.BB/	1d 1f# 1g#X	fpp	4.dd\	ci-	.	.
.	.	.	8cc#X\	-szej,	.	.
.	.	.	8ccn\	ci-	.	.
.	.	.	8b/	-szej	.	.
4B\)	.	.	8.a/	bie-	.	.
.	.	.	16g#X/	-dne	.	.
=5	=5	=5	=5	=5	=5	=5
[>2c\	[<2e/ (>2g#X	.	2b/	ser-	.	.
8c\]	8e/] 8a)	.	16a/	-ce!	.	.
.	.	.	16r	.	.	.
8r	8r	.	8a/	niech	.	.
4r	4r	.	8g#X/	i-	.	.
.	.	.	8a/	-dzie	.	.
!!LO:LB:g=original
=6	=6	=6	=6	=6	=6	=6
1r	1r	.	4.ee\	z na-	.	.
.	.	.	8cc\	-mi	.	.
.	.	.	8.a/	ta-	.	.
.	.	.	16e/	-je-	.	.
.	.	.	8c/	-mni-	.	.
.	.	.	8d/	-ce	.	.
=7	=7	=7	=7	=7	=7	=7
!	!	!LO:DY:rj	!LO:TX:a:t=a tempo	!	!	!
2G\	2B</ 2e	pp	4e/	w grób.	.	.
.	.	.	4r	.	.	.
2Fn\ 2G	2B</ 2d	.	4g/	Szczę-	.	.
.	.	.	8a/	-ście	.	.
.	.	.	8b/	co	.	.
=8	=8	=8	=8	=8	=8	=8
2E\ 2G	2c/ 2g	.	4dd\	w ja-	.	.
.	.	.	8cc\	-snej	.	.
.	.	.	8b\	za-	.	.
2E\ 2Fn	2A</ 2c	.	4a/	-bły-	.	.
.	.	.	8g#X/	-sło	.	.
.	.	.	8a/	i-	.	.
=9	=9	=9	=9	=9	=9	=9
2D\ 2Fn	2A</ 2fn	.	(>4cc\	-skie-	.	.
.	.	.	8b\)	.	.	.
.	.	.	8a/	-rce	.	.
2D\ 2E	2B</ 2e	.	4g#X/	zło-	.	.
.	.	.	8.a/	-żę	.	.
.	.	.	16b/	z ros-	.	.
!!LO:LB:g=original
=10	=10	=10	=10	=10	=10	=10
*^	*	*	*	*	*	*
(>4B/	2C#X\ 2E	1e	.	(<4.b/	-ko-	.	.
2A#X/)	.	.	.	.	.	.	.
.	.	.	.	8e/)	-szą	.	.
.	2Cn\ 2E	.	.	8.g/	u	.	.
.	.	.	.	16g/	mi-	.	.
4A#/	.	.	.	8f#/	-ło-	.	.
.	.	.	.	8e/	-ści	.	.
=11	=11	=11	=11	=11	=11	=11	=11
*	*	*	*	*2\right	*	*	*
2.B;>/	2.BB\ 2.F#	(>8d#X/L	.	2.b;>\	stóp.	.	.
.	.	8f#/J	.	.	.	.	.
.	.	2b;>/)	.	.	.	.	.
!	!	!	!	!LO:TX:a:t=un poco agitato.	!	!	!
4r	4ryy	4r	.	4r	.	.	.
*v	*v	*	*	*	*	*	*
=12||	=12||	=12||	=12||	=12||	=12||	=12||
*M4/4	*M4/4	*	*M4/4	*	*	*
*met(c)	*met(c)	*	*met(c)	*	*	*
*tremolo	*	*	*	*	*	*
!	!LO:TX:b:t=a=:color=blue	!LO:DY:b=2:rj:color=blue	!	!	!	!
32E\LLL 32G	4r	p	4e/	Snu-	.	.
32A#X\	.	.	.	.	.	.
32E\ 32G	.	.	.	.	.	.
32A#\	.	.	.	.	.	.
32E\ 32G	.	.	.	.	.	.
32A#\	.	.	.	.	.	.
32E\ 32G	.	.	.	.	.	.
32A#\	.	.	.	.	.	.
!	!LO:ART:color=blue	!LO:DY:a:color=blue	!	!	!	!
32E\ 32G	4e^</ 4g	p	8d#X/	-ją	.	.
32A#\	.	.	.	.	.	.
32E\ 32G	.	.	.	.	.	.
32A#\	.	.	.	.	.	.
32E\ 32G	.	.	8e/	się	.	.
32A#\	.	.	.	.	.	.
32E\ 32G	.	.	.	.	.	.
32A#X\JJJ	.	.	.	.	.	.
32E\LLL 32G	4r	.	4.ee\	z da-	.	.
32B\	.	.	.	.	.	.
32E\ 32G	.	.	.	.	.	.
32B\	.	.	.	.	.	.
32E\ 32G	.	.	.	.	.	.
32B\	.	.	.	.	.	.
32E\ 32G	.	.	.	.	.	.
32B\	.	.	.	.	.	.
!	!LO:ART:color=blue	!	!	!	!	!
32E\ 32G	4e^</ 4g	.	.	.	.	.
32B\	.	.	.	.	.	.
32E\ 32G	.	.	.	.	.	.
32B\	.	.	.	.	.	.
32E\ 32G	.	.	16ddn\LL	-la	.	.
32B\	.	.	.	.	.	.
32E\ 32G	.	.	16cc\JJ	.	.	.
32B\JJJ	.	.	.	.	.	.
*Xtremolo	*	*	*	*	*	*
=13	=13	=13	=13	=13	=13	=13
*tremolo	*	*	*	*	*	*
32E\LLL 32F#	4r	.	4b\	gro-	.	.
32A\	.	.	.	.	.	.
32E\ 32F#	.	.	.	.	.	.
32A\	.	.	.	.	.	.
32E\ 32F#	.	.	.	.	.	.
32A\	.	.	.	.	.	.
32E\ 32F#	.	.	.	.	.	.
32A\	.	.	.	.	.	.
.	.	.	8qbb\	.	.	.
!	!LO:ART:color=blue	!	!	!	!	!
32E\ 32F#	4d#X^</ 4f#	.	8cc\	-źne	.	.
32A\	.	.	.	.	.	.
32E\ 32F#	.	.	.	.	.	.
32A\	.	.	.	.	.	.
32E\ 32F#	.	.	8b\	wi-	.	.
32A\	.	.	.	.	.	.
32E\ 32F#	.	.	.	.	.	.
32A\JJJ	.	.	.	.	.	.
32E\LLL 32G#X	4r	.	4.dd\	-dzia-	.	.
32B\	.	.	.	.	.	.
32E\ 32G#	.	.	.	.	.	.
32B\	.	.	.	.	.	.
32E\ 32G#	.	.	.	.	.	.
32B\	.	.	.	.	.	.
32E\ 32G#	.	.	.	.	.	.
32B\	.	.	.	.	.	.
!	!LO:ART:color=blue	!	!	!	!	!
32E\ 32G#	4dn^</ 4b	.	.	.	.	.
32B\	.	.	.	.	.	.
32E\ 32G#	.	.	.	.	.	.
32B\	.	.	.	.	.	.
32E\ 32G#	.	.	8g#X/	-dła,	.	.
32B\	.	.	.	.	.	.
32E\ 32G#	.	.	.	.	.	.
32B\JJJ	.	.	.	.	.	.
*Xtremolo	*	*	*	*	*	*
=14	=14	=14	=14	=14	=14	=14
*tremolo	*	*	*	*	*	*
32E\LLL 32A	4r	.	8r	.	.	.
32c\	.	.	.	.	.	.
32E\ 32A	.	.	.	.	.	.
32c\	.	.	.	.	.	.
32E\ 32A	.	.	8a/	zni-	.	.
32c\	.	.	.	.	.	.
32E\ 32A	.	.	.	.	.	.
32c\	.	.	.	.	.	.
!	!LO:ART:color=blue	!	!	!	!	!
32E\ 32A	4e^</	.	8b\	-ka-	.	.
32c\	.	.	.	.	.	.
32E\ 32A	.	.	.	.	.	.
32c\	.	.	.	.	.	.
32E\ 32A	.	.	8cc\	-ją	.	.
32c\	.	.	.	.	.	.
32E\ 32A	.	.	.	.	.	.
32c\JJJ	.	.	.	.	.	.
32E\LLL 32G	4r	.	4.b/	ja-	.	.
32B\	.	.	.	.	.	.
32E\ 32G	.	.	.	.	.	.
32B\	.	.	.	.	.	.
32E\ 32G	.	.	.	.	.	.
32B\	.	.	.	.	.	.
32E\ 32G	.	.	.	.	.	.
32B\	.	.	.	.	.	.
!	!LO:ART:color=blue	!	!	!	!	!
32E\ 32G	4e^</ 4g	.	.	.	.	.
32B\	.	.	.	.	.	.
32E\ 32G	.	.	.	.	.	.
32B\	.	.	.	.	.	.
32E\ 32G	.	.	8g/	-snej	.	.
32B\	.	.	.	.	.	.
32E\ 32G	.	.	.	.	.	.
32B\JJJ	.	.	.	.	.	.
*Xtremolo	*	*	*	*	*	*
=15	=15	=15	=15	=15	=15	=15
*tremolo	*	*	*	*	*	*
32C\LLL 32G	4r	.	4e/	przy-	.	.
32c\	.	.	.	.	.	.
32C\ 32G	.	.	.	.	.	.
32c\	.	.	.	.	.	.
32C\ 32G	.	.	.	.	.	.
32c\	.	.	.	.	.	.
32C\ 32G	.	.	.	.	.	.
32c\	.	.	.	.	.	.
!	!LO:ART:color=blue	!	!	!	!	!
32C\ 32G	4e^</ 4g	.	8.cc\	-szło-	.	.
32c\	.	.	.	.	.	.
32C\ 32G	.	.	.	.	.	.
32c\	.	.	.	.	.	.
32C\ 32G	.	.	.	.	.	.
32c\	.	.	.	.	.	.
32C\ 32G	.	.	16b\	-ści	.	.
32c\JJJ	.	.	.	.	.	.
32E\LLL 32G	4r	.	4b\	sny,	.	.
32B\	.	.	.	.	.	.
32E\ 32G	.	.	.	.	.	.
32B\	.	.	.	.	.	.
32E\ 32G	.	.	.	.	.	.
32B\	.	.	.	.	.	.
32E\ 32G	.	.	.	.	.	.
32B\	.	.	.	.	.	.
!	!LO:ART:color=blue	!	!	!	!	!
32E\ 32G	4e^</ 4g	.	4r	.	.	.
32B\	.	.	.	.	.	.
32E\ 32G	.	.	.	.	.	.
32B\	.	.	.	.	.	.
32E\ 32G	.	.	.	.	.	.
32B\	.	.	.	.	.	.
32E\ 32G	.	.	.	.	.	.
32B\JJJ	.	.	.	.	.	.
*Xtremolo	*	*	*	*	*	*
!!LO:LB:g=original
=16	=16	=16	=16	=16	=16	=16
*tremolo	*	*	*	*	*	*
32G\LLL	4r	.	4b\	złud-	.	.
32B\	.	.	.	.	.	.
32G\	.	.	.	.	.	.
32B\	.	.	.	.	.	.
32G\	.	.	.	.	.	.
32B\	.	.	.	.	.	.
32G\	.	.	.	.	.	.
32B\	.	.	.	.	.	.
!	!LO:ART:color=blue	!	!	!	!	!
32G\	4d^</ 4g 4b	.	8cc\	-nych	.	.
32B\	.	.	.	.	.	.
32G\	.	.	.	.	.	.
32B\	.	.	.	.	.	.
32G\	.	.	8cc#X\	na-	.	.
32B\	.	.	.	.	.	.
32G\	.	.	.	.	.	.
32B\JJJ	.	.	.	.	.	.
32D\LLL	4r	.	(>4.dd\	-dzie-	.	.
32A\	.	.	.	.	.	.
32D\	.	.	.	.	.	.
32A\	.	.	.	.	.	.
32D\	.	.	.	.	.	.
32A\	.	.	.	.	.	.
32D\	.	.	.	.	.	.
32A\	.	.	.	.	.	.
!	!LO:ART:color=blue	!	!	!	!	!
32D\	4d^</ 4f# 4a	.	.	.	.	.
32A\	.	.	.	.	.	.
32D\	.	.	.	.	.	.
32A\	.	.	.	.	.	.
32D\	.	.	16ccn\LL	.	.	.
32A\	.	.	.	.	.	.
32D\	.	.	16b\JJ)	.	.	.
32A\JJJ	.	.	.	.	.	.
*Xtremolo	*	*	*	*	*	*
=17	=17	=17	=17	=17	=17	=17
*tremolo	*	*	*	*	*	*
32Fn\LLL	4r	.	8a/	-i	.	.
32A\	.	.	.	.	.	.
32F\	.	.	.	.	.	.
32A\	.	.	.	.	.	.
32F\	.	.	8a/	gwiaz-	.	.
32A\	.	.	.	.	.	.
32F\	.	.	.	.	.	.
32A\	.	.	.	.	.	.
!	!LO:ART:color=blue	!	!	!	!	!
32F\	4c^</ 4fn 4g	.	8b-X\	-da	.	.
32A\	.	.	.	.	.	.
32F\	.	.	.	.	.	.
32A\	.	.	.	.	.	.
32F\	.	.	8bn\	po-	.	.
32A\	.	.	.	.	.	.
32F\	.	.	.	.	.	.
32A\JJJ	.	.	.	.	.	.
32E\LLL	4r	.	4cc\	-bla-	.	.
32G\	.	.	.	.	.	.
32E\	.	.	.	.	.	.
32G\	.	.	.	.	.	.
32E\	.	.	.	.	.	.
32G\	.	.	.	.	.	.
32E\	.	.	.	.	.	.
32G\	.	.	.	.	.	.
!	!LO:ART:color=blue	!	!	!	!	!
32E\	4c^</ 4e 4g	.	4cc\	-dła,	.	.
32G\	.	.	.	.	.	.
32E\	.	.	.	.	.	.
32G\	.	.	.	.	.	.
32E\	.	.	.	.	.	.
32G\	.	.	.	.	.	.
32E\	.	.	.	.	.	.
32G\JJJ	.	.	.	.	.	.
*Xtremolo	*	*	*	*	*	*
=18	=18	=18	=18	=18	=18	=18
*tremolo	*	*	*	*	*	*
!	!LO:S:color=blue	!	!	!	!	!
!	!LO:ART:color=blue	!	!	!	!	!
32AA/LLL	4c^</ 4d#X (>4f#	.	4cc^>\	e-	.	.
32E/	.	.	.	.	.	.
32AA/	.	.	.	.	.	.
32E/	.	.	.	.	.	.
32AA/	.	.	.	.	.	.
32E/	.	.	.	.	.	.
32AA/	.	.	.	.	.	.
32E/JJJ	.	.	.	.	.	.
32GG/LLL	4B/ 4e)	.	8.b/	-cho	.	.
32E/	.	.	.	.	.	.
32GG/	.	.	.	.	.	.
32E/	.	.	.	.	.	.
32GG/	.	.	.	.	.	.
32E/	.	.	.	.	.	.
32GG/	.	.	16g/	prze-	.	.
32E/JJJ	.	.	.	.	.	.
!	!LO:S:color=blue	!	!	!	!	!
(<32C^</LLL	(>4d#/	.	4e/	-kleń-	.	.
32E/	.	.	.	.	.	.
32C/	.	.	.	.	.	.
32E/	.	.	.	.	.	.
32C/	.	.	.	.	.	.
32E/	.	.	.	.	.	.
32C/	.	.	.	.	.	.
32E/JJJ	.	.	.	.	.	.
*Xtremolo	*	*	*	*	*	*
32BB/LLL	8.d#X/L 8.f#	.	8.f#/	-stwem	.	.
32E/	.	.	.	.	.	.
32BB/	.	.	.	.	.	.
32E/	.	.	.	.	.	.
32BB-X/	.	.	.	.	.	.
32E/	.	.	.	.	.	.
32BB-/	16dn/Jk 16g	.	16g/	po-	.	.
32E/JJJ)	.	.	.	.	.	.
=19	=19	=19	=19	=19	=19	=19
*	*^	*	*	*	*	*
*tremolo	*	*	*	*	*	*	*
32AA/LLL	4c#X/ 4a)	2ryy	.	4.a/	-nu-	.	.
32E/	.	.	.	.	.	.	.
32AA/	.	.	.	.	.	.	.
32E/	.	.	.	.	.	.	.
32AA/	.	.	.	.	.	.	.
32E/	.	.	.	.	.	.	.
32AA/	.	.	.	.	.	.	.
32E/JJJ	.	.	.	.	.	.	.
32AA/LLL	&(<4c#/ [>4a	.	.	.	.	.	.
32E#X/	.	.	.	.	.	.	.
32AA/	.	.	.	.	.	.	.
32E#/	.	.	.	.	.	.	.
32AA/	.	.	.	8a/	-ro	.	.
32E#/	.	.	.	.	.	.	.
32AA/	.	.	.	.	.	.	.
32E#X/JJJ	.	.	.	.	.	.	.
32D\LLL	(>4a/]	2d\&)	.	4a/	drży.	.	.
32F#\	.	.	.	.	.	.	.
32D\	.	.	.	.	.	.	.
32F#\	.	.	.	.	.	.	.
32D\	.	.	.	.	.	.	.
32F#\	.	.	.	.	.	.	.
32D\	.	.	.	.	.	.	.
32F#\JJJ	.	.	.	.	.	.	.
32D\LLL	8.f#/L)	.	.	4r	.	.	.
32A\	.	.	.	.	.	.	.
32D\	.	.	.	.	.	.	.
32A\	.	.	.	.	.	.	.
32D\	.	.	.	.	.	.	.
32A\	.	.	.	.	.	.	.
32D\	16a/Jk	.	.	.	.	.	.
32A\JJJ	.	.	.	.	.	.	.
*Xtremolo	*	*	*	*	*	*	*
*	*v	*v	*	*	*	*	*
!!LO:PB:g=original
=20	=20	=20	=20	=20	=20	=20
2C\	16r	.	4a/	świat	.	.
.	(<16E</LL	.	.	.	.	.
.	16A</	.	.	.	.	.
.	16c</JJ	.	.	.	.	.
!!mixed beam:problem
!	!LO:TX:t=P:problem:mixed beam	!	!	!	!	!
.	16e\LL	.	8cc\	nie-	.	.
.	16c</	.	.	.	.	.
.	16A</	.	8ee\	-zbła-	.	.
.	16E</JJ)	.	.	.	.	.
2BB\	16r	.	4.dd#X\	-ga-	.	.
.	(<16F#</LL	.	.	.	.	.
.	16A</	.	.	.	.	.
.	16B</JJ	.	.	.	.	.
!!mixed beam:problem
!	!LO:TX:t=P:problem:mixed beam	!	!	!	!	!
.	16d#X\LL	.	.	.	.	.
.	16B</	.	.	.	.	.
.	16A</	.	8b\	-ne	.	.
.	16F#</JJ)	.	.	.	.	.
=21	=21	=21	=21	=21	=21	=21
2E\	16r	.	8r	.	.	.
!	!LO:TX:t=P:problem:mixed beam	!	!	!	!	!
.	(<16A</LL	.	.	.	.	.
.	16c</	.	8a/	wska-	.	.
.	16e\JJ	.	.	.	.	.
!!mixed beam:problem
!	!LO:TX:t=P:problem:mixed beam	!	!	!	!	!
.	16a\LL	.	8g/	-zu-	.	.
.	16e\	.	.	.	.	.
.	16c</	.	8a/	-je	.	.
.	16A</JJ)	.	.	.	.	.
2D#X\	16r	.	4b/	pra-	.	.
!!mixed beam:problem
!	!LO:TX:t=P:problem:mixed beam	!	!	!	!	!
.	(>16B</LL	.	.	.	.	.
.	16f#\	.	.	.	.	.
.	16a\JJ	.	.	.	.	.
.	16b\LL	.	4f#/	-wa	.	.
.	16a\	.	.	.	.	.
.	16f#\	.	.	.	.	.
.	16B</JJ)	.	.	.	.	.
=22	=22	=22	=22	=22	=22	=22
(>4F#\	16r	.	4a/	co	.	.
.	(<16c/LL	.	.	.	.	.
.	16e/	.	.	.	.	.
.	16a/JJ	.	.	.	.	.
4E\	16cc/LL	.	8cc\	nie-	.	.
.	16a/	.	.	.	.	.
.	16e/	.	8ee\	-na-	.	.
.	16c/JJ)	.	.	.	.	.
2BB/)	16r	.	(>16dd#X\LL	-wi-	.	.
.	(<16B/LL	.	(>16ff#\JJ)	.	.	.
.	16f#/	.	4ff#\)	.	.	.
.	16a/JJ	.	.	.	.	.
.	16b/LL	.	.	.	.	.
.	16a/	.	.	.	.	.
.	16f#/	.	8b\	-ści	.	.
.	16B/JJ)	.	.	.	.	.
=23	=23	=23	=23	=23	=23	=23
2C/	16r	.	4a/	i	.	.
.	(<16e/LL	.	.	.	.	.
.	16a/	.	.	.	.	.
.	16e/JJ	.	.	.	.	.
.	16ee/LL	.	16g#X/LL	cier-	.	.
.	16a/	.	16a/JJ	.	.	.
.	16e/	.	16b\LL	-pień	.	.
.	16a/JJ)	.	16cc\JJ	.	.	.
2c\	16r	.	[>4dd\	chcą,	.	.
.	(<16d/LL	.	.	.	.	.
.	16f#/	.	.	.	.	.
.	16a/JJ	.	.	.	.	.
.	16dd/LL	.	8dd\]	.	.	.
.	16a/	.	.	.	.	.
.	16f#/	.	8r	.	.	.
.	16d/JJ)	.	.	.	.	.
!!LO:PB:g=original
=24	=24	=24	=24	=24	=24	=24
4B^>\	16r	.	4dd\	po	.	.
.	(<16d/LL	.	.	.	.	.
.	16g/	.	.	.	.	.
.	16dd/JJ)	.	.	.	.	.
.	.	.	8qff#/	.	.	.
4A^>\	16r	.	8ee\	ży-	.	.
.	(<16d/LL	.	.	.	.	.
.	16f#/	.	8dd\	-cie	.	.
.	16cc/JJ)	.	.	.	.	.
2G^>\	16r	.	4.gg\	się-	.	.
.	(<16B/LL	.	.	.	.	.
.	16d/	.	.	.	.	.
.	16g/JJ	.	.	.	.	.
.	16b/LL	.	.	.	.	.
.	16g/	.	.	.	.	.
.	16d/	.	8b\	-ga	.	.
.	16B/JJ)	.	.	.	.	.
=25	=25	=25	=25	=25	=25	=25
(>2BB^</	16r	.	4ff#^>\	dłoń	.	.
.	(<16B/LL	.	.	.	.	.
.	16f#/	.	.	.	.	.
.	16a/JJ	.	.	.	.	.
.	16b/LL	.	8.ee\	zem-	.	.
.	16a/	.	.	.	.	.
.	16f#/	.	.	.	.	.
.	16B/JJ)	.	16dd#X\	-sty	.	.
2E\)	16r	.	4ff#\	krwa-	.	.
.	(<16B/LL	.	.	.	.	.
.	16e/	.	.	.	.	.
.	16g/JJ	.	.	.	.	.
.	16b/LL	.	8ee\	-wa,	.	.
.	16g/	.	.	.	.	.
.	16e/	.	16r	.	.	.
!	!	!	!LO:TX:a:t=piu largo.	!	!	!
.	16B/JJ)	.	16ee\	a	.	.
=26	=26	=26	=26	=26	=26	=26
4GG/	16r	.	4.ffn^>\	se-	.	.
.	(<16d/LL	.	.	.	.	.
.	16fn/	.	.	.	.	.
.	16g/JJ	.	.	.	.	.
4D:\ 4Fn: 4G: 4B:	16b/LL	.	.	.	.	.
.	16g/	.	.	.	.	.
.	16f/	.	8b\	-rce	.	.
.	16d/JJ)	.	.	.	.	.
!	!LO:TX:b:t=cres_cen_do.:problem:dynamics with extention lines	!LO:HP:b:t=cres-cen-do.:ext=ud	!	!	!	!
(>4C^<:\ 4E: 4G: 4c:	16r	<	4dd\	wo-	.	.
.	(<16e/LL	.	.	.	.	.
.	16g/	.	.	.	.	.
.	16cc/JJ)	.	.	.	.	.
8BB/L)	16r	.	16cc\	-ła:	.	.
.	(<16e/LL	.	16r	.	.	.
8BB-X/J	16g/	.	8ee^>\	ja	.	.
.	16cc/JJ)	.	.	.	.	.
=27	=27	=27	=27	=27	=27	=27
(<4AA/	16r	.	4.gg^>\	ko-	.	.
.	(<16e/LL	.	.	.	.	.
.	16g/	.	.	.	.	.
.	16cc#X/JJ	.	.	.	.	.
4AA#X:/ 4E: 4G: 4c#X:	16ee/LL	.	.	.	.	.
.	16cc#/	.	.	.	.	.
.	16g/	.	8ff#\	-cham!	.	.
.	16e/JJ)	.	.	.	.	.
.	.	.	8qaa/	.	.	.
8BB:/) 8D: 8G: 8d:	16r	.	4.gg^>\	ko-	.	.
.	(<16d/LL	.	.	.	.	.
8r	16g/	.	.	.	.	.
.	16dd/JJ)	.	.	.	.	.
4BBB/ 4BB	16r	[	.	.	.	.
.	(<16d#X/LL	.	.	.	.	.
.	16g/	.	8dd#X\	-cham	.	.
.	16dd#X/JJ)	.	.	.	.	.
!!LO:LB:g=original
=28	=28	=28	=28	=28	=28	=28
!	!	!	!LO:TX:a:t=accelerando	!	!	!
4CC^</ 4C	16r	.	(4ff#^>\	go!	.	.
!	!	!LO:DY:rj	!	!	!	!
.	(<16f#/LL	f	.	.	.	.
.	16a/	.	.	.	.	.
.	16dd#X/JJ)	.	.	.	.	.
4GG#X^</ 4G#X	16r	.	8ee\)	.	.	.
.	(<16e/LL	.	.	.	.	.
.	16b/	.	16r	.	.	.
.	16ee/JJ)	.	16b\	[[Tak	a	.
4AA^</ 4A	16r	.	4dd^>\	wo-	ser-	.
.	(<16e/LL	.	.	.	.	.
.	16a/	.	.	.	.	.
.	16dd#/JJ)	.	.	.	.	.
4FF#^</ 4F#	16r	.	8cc\	-ła	-ce	.
.	(<16e/LL	.	.	.	.	.
.	16a/	.	8a/	ja	me	.
.	16cc/JJ)	.	.	.	.	.
=29	=29	=29	=29	=29	=29	=29
!	!	!	!LO:TX:a:t=tempo 1mo	!	!	!
[<4BB/	(<16g/LL 16b	.	8.g/L	ko-	wo-	.
.	16e/	.	.	.	.	.
.	16B/	.	.	.	.	.
.	16e/JJ)	.	16a/Jk	.	.	.
8BB/]	8e^</ 8g	.	16a#X/LL	-cham]],	-ła:	.
.	.	.	16b/JJ	.	.	.
8r	8r	.	16dd#X\LL	ja	.	.
.	.	.	16ee\JJ	.	.	.
4r	4r	.	4..gg;>\	ko-	.	.
4BBB;>/ 4BB	4B^<;>/ 4d#X 4a 4b	.	.	.	.	.
.	.	.	16ff#\	-cham	.	.
=30	=30	=30	=30	=30	=30	=30
*Xtuplet	*	*	*	*	*	*
!	!	!LO:DY:rj	!	!	!	!
12EE/ 12E	(>4g\ 4b 4ee 4gg	f <	2ee\	go!	.	.
(<12G\L	.	.	.	.	.	.
12B\J	.	.	.	.	.	.
12E\L	8a\L 8aa	.	.	.	.	.
12G\	.	.	.	.	.	.
.	8a#X\J 8aa#X	.	.	.	.	.
12B\J	.	.	.	.	.	.
12D\L	4b\ 4bb	.	2r	.	.	.
12F#\	.	.	.	.	.	.
12B\J	.	.	.	.	.	.
12D\L	8cc#X\L 8ccc#X	.	.	.	.	.
12F#\	.	.	.	.	.	.
.	8dd\J 8ddd	[[	.	.	.	.
12B\J	.	.	.	.	.	.
=31	=31	=31	=31	=31	=31	=31
12C#X\L	4ee\) 4eee	ff	1r	.	.	.
12E\	.	.	.	.	.	.
12G\J	.	.	.	.	.	.
12FF#/L	8.ff#^>\L 8.aa#X 8.fff#	.	.	.	.	.
12C#/	.	.	.	.	.	.
12F#/J	.	.	.	.	.	.
.	16ee\Jk 16eee	.	.	.	.	.
12BB/L	(<4ee\ (>4eee	.	.	.	.	.
12F#/	.	.	.	.	.	.
12B/J	.	.	.	.	.	.
12BB/L	8dd#X\L)) 8ddd#X	.	.	.	.	.
12F#/	.	.	.	.	.	.
.	16r	.	.	.	.	.
12B/J)	.	.	.	.	.	.
.	16bb\Jk	.	.	.	.	.
!!LO:LB:g=original
=32	=32	=32	=32	=32	=32	=32
(>12E\L	(<4ddn\ 4gg#X (>4dddn	.	1r	.	.	.
12B\	.	.	.	.	.	.
12E\J	.	.	.	.	.	.
12AA\L	8cc\L)) 8aa 8ccc	.	.	.	.	.
12E\	.	.	.	.	.	.
.	16r	.	.	.	.	.
12A\J	.	.	.	.	.	.
!	!	!LO:HP:a	!	!	!	!
.	16ee\Jk	>	.	.	.	.
12BB\L	4gn\ 4b (>4ggn	.	.	.	.	.
12E\	.	.	.	.	.	.
12G\J	.	.	.	.	.	.
12E\L	8b\L)	.	.	.	.	.
12G\	.	.	.	.	.	.
.	16r	.	.	.	.	.
12E\J	.	.	.	.	.	.
.	32a\LL	.	.	.	.	.
.	32b\JJJ	.	.	.	.	.
=33	=33	=33	=33	=33	=33	=33
*	*^	*	*	*	*	*
12AA\L	4.f#^>/ (>4.cc	(<4e\ [>4f#	.	1r;>	.	.	.
12F#\	.	.	.	.	.	.	.
12A\J)	.	.	.	.	.	.	.
12BB\L	.	4d#X\) 4f#]	.	.	.	.	.
12F#\	.	.	.	.	.	.	.
!	!LO:TX:a:t=molto	!	!	!	!	!	!
.	8b/)	.	.	.	.	.	.
12A\J	.	.	.	.	.	.	.
*ped	*Xtuplet	*	*	*	*	*	*
!	!	!	!LO:DY:rj	!	!	!	!
8E\ 8G	(>36e/LLL	2ryy	p	.	.	.	.
!	!LO:TX:a:t=ralent	!	!	!	!	!	!
.	36B/	.	.	.	.	.	.
.	36G/	.	>	.	.	.	.
.	36E</	.	.	.	.	.	.
.	36G/	.	.	.	.	.	.
8r	.	.	.	.	.	.	.
.	36B/	.	.	.	.	.	.
.	36e/	.	.	.	.	.	.
.	36g/	.	.	.	.	.	.
.	36b/JJJ	.	.	.	.	.	.
!	!	!LO:TX:t=P:problem:pp[ianissimo]=pp.	!	!	!	!	!
4ryy	8g/ 8b 8ee)	.	] pp	.	.	.	.
!LO:TX:b:t=[coda]	!LO:TX:b:t==B:color=blue	!	!	!	!	!	!
.	8r;	.	.	.	.	.	.
*	*v	*v	*	*	*	*	*
=34	=34	=34	=34	=34	=34	=34
*tremolo	*	*	*	*	*	*
!	!LO:TX:t=P:problem:powtórka taktów 12-33	!	!	!	!	!
!LO:TX:t=P:problem:powtórka taktów 12-33	!LO:TX:b:t=a=:color=blue	!	!LO:TX:a:t=piu agitato.	!	!	!
32E\LLLyy 32Gyy	4ryy	py	4e/	Oh!	.	.
32A#X\yy	.	.	.	.	.	.
32E\yy 32Gyy	.	.	.	.	.	.
32A#\yy	.	.	.	.	.	.
32E\yy 32Gyy	.	.	.	.	.	.
32A#\yy	.	.	.	.	.	.
32E\yy 32Gyy	.	.	.	.	.	.
32A#\yy	.	.	.	.	.	.
!	!LO:ART:color=blue	!LO:DY:a:color=blue	!	!	!	!
32E\yy 32Gyy	4e^</yy 4gyy	py	8d#X/	nie-	.	.
32A#\yy	.	.	.	.	.	.
32E\yy 32Gyy	.	.	.	.	.	.
32A#\yy	.	.	.	.	.	.
32E\yy 32Gyy	.	.	8e/	-chaj	.	.
32A#\yy	.	.	.	.	.	.
32E\yy 32Gyy	.	.	.	.	.	.
32A#\JJJyy	.	.	.	.	.	.
32E\LLLyy 32Gyy	4ryy	.	4.ee\	przy-	.	.
32B\yy	.	.	.	.	.	.
32E\yy 32Gyy	.	.	.	.	.	.
32B\yy	.	.	.	.	.	.
32E\yy 32Gyy	.	.	.	.	.	.
32B\yy	.	.	.	.	.	.
32E\yy 32Gyy	.	.	.	.	.	.
32B\yy	.	.	.	.	.	.
!	!LO:ART:color=blue	!	!	!	!	!
32E\yy 32Gyy	4e^</yy 4gyy	.	.	.	.	.
32B\yy	.	.	.	.	.	.
32E\yy 32Gyy	.	.	.	.	.	.
32B\yy	.	.	.	.	.	.
32E\yy 32Gyy	.	.	16dd\LL	-szłość	.	.
32B\yy	.	.	.	.	.	.
32E\yy 32Gyy	.	.	16cc\JJ	.	.	.
32B\JJJyy	.	.	.	.	.	.
*Xtremolo	*	*	*	*	*	*
=35	=35	=35	=35	=35	=35	=35
*tremolo	*	*	*	*	*	*
32E\LLLyy 32F#yy	4ryy	.	4b\	za-	.	.
32A\yy	.	.	.	.	.	.
32E\yy 32F#yy	.	.	.	.	.	.
32A\yy	.	.	.	.	.	.
32E\yy 32F#yy	.	.	.	.	.	.
32A\yy	.	.	.	.	.	.
32E\yy 32F#yy	.	.	.	.	.	.
32A\yy	.	.	.	.	.	.
.	.	.	8qdd/	.	.	.
!	!LO:ART:color=blue	!	!	!	!	!
32E\yy 32F#yy	4d#X^</yy 4f#yy	.	8cc\	-chmu-	.	.
32A\yy	.	.	.	.	.	.
32E\yy 32F#yy	.	.	.	.	.	.
32A\yy	.	.	.	.	.	.
32E\yy 32F#yy	.	.	8b\	-rza	.	.
32A\yy	.	.	.	.	.	.
32E\yy 32F#yy	.	.	.	.	.	.
32A\JJJyy	.	.	.	.	.	.
32E\LLLyy 32G#Xyy	4ryy	.	4.dd\	li-	.	.
32B\yy	.	.	.	.	.	.
32E\yy 32G#yy	.	.	.	.	.	.
32B\yy	.	.	.	.	.	.
32E\yy 32G#yy	.	.	.	.	.	.
32B\yy	.	.	.	.	.	.
32E\yy 32G#yy	.	.	.	.	.	.
32B\yy	.	.	.	.	.	.
!	!LO:ART:color=blue	!	!	!	!	!
32E\yy 32G#yy	4dn^</yy 4byy	.	.	.	.	.
32B\yy	.	.	.	.	.	.
32E\yy 32G#yy	.	.	.	.	.	.
32B\yy	.	.	.	.	.	.
32E\yy 32G#yy	.	.	8g#X/	-ca,	.	.
32B\yy	.	.	.	.	.	.
32E\yy 32G#yy	.	.	.	.	.	.
32B\JJJyy	.	.	.	.	.	.
*Xtremolo	*	*	*	*	*	*
!!LO:PB:g=original
=36	=36	=36	=36	=36	=36	=36
*tremolo	*	*	*	*	*	*
32E\LLLyy 32Ayy	4ryy	.	8r	.	.	.
32c\yy	.	.	.	.	.	.
32E\yy 32Ayy	.	.	.	.	.	.
32c\yy	.	.	.	.	.	.
32E\yy 32Ayy	.	.	8a/	los	.	.
32c\yy	.	.	.	.	.	.
32E\yy 32Ayy	.	.	.	.	.	.
32c\yy	.	.	.	.	.	.
!	!LO:ART:color=blue	!	!	!	!	!
32E\yy 32Ayy	4e^</yy	.	8b\	nie-	.	.
32c\yy	.	.	.	.	.	.
32E\yy 32Ayy	.	.	.	.	.	.
32c\yy	.	.	.	.	.	.
32E\yy 32Ayy	.	.	8cc\	-chaj	.	.
32c\yy	.	.	.	.	.	.
32E\yy 32Ayy	.	.	.	.	.	.
32c\JJJyy	.	.	.	.	.	.
32E\LLLyy 32Gyy	4ryy	.	4b/	zsy-	.	.
32B\yy	.	.	.	.	.	.
32E\yy 32Gyy	.	.	.	.	.	.
32B\yy	.	.	.	.	.	.
32E\yy 32Gyy	.	.	.	.	.	.
32B\yy	.	.	.	.	.	.
32E\yy 32Gyy	.	.	.	.	.	.
32B\yy	.	.	.	.	.	.
!	!LO:ART:color=blue	!	!	!	!	!
32E\yy 32Gyy	4e^</yy 4gyy	.	8.g/	-ła	.	.
32B\yy	.	.	.	.	.	.
32E\yy 32Gyy	.	.	.	.	.	.
32B\yy	.	.	.	.	.	.
32E\yy 32Gyy	.	.	.	.	.	.
32B\yy	.	.	.	.	.	.
32E\yy 32Gyy	.	.	16e/	za	.	.
32B\JJJyy	.	.	.	.	.	.
*Xtremolo	*	*	*	*	*	*
=37	=37	=37	=37	=37	=37	=37
*tremolo	*	*	*	*	*	*
32C\LLLyy 32Gyy	4ryy	.	4..cc\	gro-	.	.
32c\yy	.	.	.	.	.	.
32C\yy 32Gyy	.	.	.	.	.	.
32c\yy	.	.	.	.	.	.
32C\yy 32Gyy	.	.	.	.	.	.
32c\yy	.	.	.	.	.	.
32C\yy 32Gyy	.	.	.	.	.	.
32c\yy	.	.	.	.	.	.
!	!LO:ART:color=blue	!	!	!	!	!
32C\yy 32Gyy	4e^</yy 4gyy	.	.	.	.	.
32c\yy	.	.	.	.	.	.
32C\yy 32Gyy	.	.	.	.	.	.
32c\yy	.	.	.	.	.	.
32C\yy 32Gyy	.	.	.	.	.	.
32c\yy	.	.	.	.	.	.
32C\yy 32Gyy	.	.	16b\	-mem	.	.
32c\JJJyy	.	.	.	.	.	.
32E\LLLyy 32Gyy	4ryy	.	4b\	grom,	.	.
32B\yy	.	.	.	.	.	.
32E\yy 32Gyy	.	.	.	.	.	.
32B\yy	.	.	.	.	.	.
32E\yy 32Gyy	.	.	.	.	.	.
32B\yy	.	.	.	.	.	.
32E\yy 32Gyy	.	.	.	.	.	.
32B\yy	.	.	.	.	.	.
!	!LO:ART:color=blue	!	!	!	!	!
32E\yy 32Gyy	4e^</yy 4gyy	.	4r	.	.	.
32B\yy	.	.	.	.	.	.
32E\yy 32Gyy	.	.	.	.	.	.
32B\yy	.	.	.	.	.	.
32E\yy 32Gyy	.	.	.	.	.	.
32B\yy	.	.	.	.	.	.
32E\yy 32Gyy	.	.	.	.	.	.
32B\JJJyy	.	.	.	.	.	.
*Xtremolo	*	*	*	*	*	*
=38	=38	=38	=38	=38	=38	=38
*tremolo	*	*	*	*	*	*
32G\LLLyy	4ryy	.	4b\	niech	.	.
32B\yy	.	.	.	.	.	.
32G\yy	.	.	.	.	.	.
32B\yy	.	.	.	.	.	.
32G\yy	.	.	.	.	.	.
32B\yy	.	.	.	.	.	.
32G\yy	.	.	.	.	.	.
32B\yy	.	.	.	.	.	.
!	!LO:ART:color=blue	!	!	!	!	!
32G\yy	4d^</yy 4gyy 4byy	.	8cc\	pa-	.	.
32B\yy	.	.	.	.	.	.
32G\yy	.	.	.	.	.	.
32B\yy	.	.	.	.	.	.
32G\yy	.	.	8cc#X\	-ła-	.	.
32B\yy	.	.	.	.	.	.
32G\yy	.	.	.	.	.	.
32B\JJJyy	.	.	.	.	.	.
32D\LLLyy	4ryy	.	(>4.dd\	-ją-	.	.
32A\yy	.	.	.	.	.	.
32D\yy	.	.	.	.	.	.
32A\yy	.	.	.	.	.	.
32D\yy	.	.	.	.	.	.
32A\yy	.	.	.	.	.	.
32D\yy	.	.	.	.	.	.
32A\yy	.	.	.	.	.	.
!	!LO:ART:color=blue	!	!	!	!	!
32D\yy	4d^</yy 4f#yy 4ayy	.	.	.	.	.
32A\yy	.	.	.	.	.	.
32D\yy	.	.	.	.	.	.
32A\yy	.	.	.	.	.	.
32D\yy	.	.	16ccn\LL	.	.	.
32A\yy	.	.	.	.	.	.
32D\yy	.	.	16b\JJ)	.	.	.
32A\JJJyy	.	.	.	.	.	.
*Xtremolo	*	*	*	*	*	*
=39	=39	=39	=39	=39	=39	=39
*tremolo	*	*	*	*	*	*
32Fn\LLLyy	4ryy	.	8a/	-ca	.	.
32A\yy	.	.	.	.	.	.
32F\yy	.	.	.	.	.	.
32A\yy	.	.	.	.	.	.
32F\yy	.	.	8a/	śmier-	.	.
32A\yy	.	.	.	.	.	.
32F\yy	.	.	.	.	.	.
32A\yy	.	.	.	.	.	.
!	!LO:ART:color=blue	!	!	!	!	!
32F\yy	4c^</yy 4fnyy 4gyy	.	8b-X\	-ci	.	.
32A\yy	.	.	.	.	.	.
32F\yy	.	.	.	.	.	.
32A\yy	.	.	.	.	.	.
32F\yy	.	.	8bn\	źre-	.	.
32A\yy	.	.	.	.	.	.
32F\yy	.	.	.	.	.	.
32A\JJJyy	.	.	.	.	.	.
32E\LLLyy	4ryy	.	4cc\	-ni-	.	.
32G\yy	.	.	.	.	.	.
32E\yy	.	.	.	.	.	.
32G\yy	.	.	.	.	.	.
32E\yy	.	.	.	.	.	.
32G\yy	.	.	.	.	.	.
32E\yy	.	.	.	.	.	.
32G\yy	.	.	.	.	.	.
!	!LO:ART:color=blue	!	!	!	!	!
32E\yy	4c^</yy 4eyy 4gyy	.	8cc\	-ca	.	.
32G\yy	.	.	.	.	.	.
32E\yy	.	.	.	.	.	.
32G\yy	.	.	.	.	.	.
32E\yy	.	.	8r	.	.	.
32G\yy	.	.	.	.	.	.
32E\yy	.	.	.	.	.	.
32G\JJJyy	.	.	.	.	.	.
*Xtremolo	*	*	*	*	*	*
!!LO:LB:g=original
=40	=40	=40	=40	=40	=40	=40
!	!LO:S:color=blue	!	!	!	!	!
!	!LO:ART:color=blue	!	!	!	!	!
*tremolo	*	*	*	*	*	*
32AA/LLLyy	4c^</yy 4d#Xyy (>4f#yy	.	4cc^>\	mo-	.	.
32E/yy	.	.	.	.	.	.
32AA/yy	.	.	.	.	.	.
32E/yy	.	.	.	.	.	.
32AA/yy	.	.	.	.	.	.
32E/yy	.	.	.	.	.	.
32AA/yy	.	.	.	.	.	.
32E/JJJyy	.	.	.	.	.	.
32GG/LLLyy	4B/yy 4e)yy	.	8.b/	-im	.	.
32E/yy	.	.	.	.	.	.
32GG/yy	.	.	.	.	.	.
32E/yy	.	.	.	.	.	.
32GG/yy	.	.	.	.	.	.
32E/yy	.	.	.	.	.	.
32GG/yy	.	.	16g/	i	.	.
32E/JJJyy	.	.	.	.	.	.
!	!LO:S:color=blue	!	!	!	!	!
(<32C^/LLLyy	(>4d#/yy	.	4e/	je-	.	.
32E/yy	.	.	.	.	.	.
32C/yy	.	.	.	.	.	.
32E/yy	.	.	.	.	.	.
32C/yy	.	.	.	.	.	.
32E/yy	.	.	.	.	.	.
32C/yy	.	.	.	.	.	.
32E/JJJyy	.	.	.	.	.	.
32BB/LLLyy	8.d#X/Lyy 8.f#yy	.	8.f#/	-go	.	.
32E/yy	.	.	.	.	.	.
32BB/yy	.	.	.	.	.	.
32E/yy	.	.	.	.	.	.
32BB-X/yy	.	.	.	.	.	.
32E/yy	.	.	.	.	.	.
32BB-/yy	16dn/Jkyy 16gyy	.	16g/	za-	.	.
32E/JJJ)yy	.	.	.	.	.	.
*Xtremolo	*	*	*	*	*	*
=41	=41	=41	=41	=41	=41	=41
*	*^	*	*	*	*	*
*tremolo	*	*	*	*	*	*	*
32AA/LLLyy	4c#X/yy 4a)yy	2ryy	.	4.a/	-gra-	.	.
32E/yy	.	.	.	.	.	.	.
32AA/yy	.	.	.	.	.	.	.
32E/yy	.	.	.	.	.	.	.
32AA/yy	.	.	.	.	.	.	.
32E/yy	.	.	.	.	.	.	.
32AA/yy	.	.	.	.	.	.	.
32E/JJJyy	.	.	.	.	.	.	.
32AA/LLLyy	&(4c#/yy [>4ayy	.	.	.	.	.	.
32E#X/yy	.	.	.	.	.	.	.
32AA/yy	.	.	.	.	.	.	.
32E#/yy	.	.	.	.	.	.	.
32AA/yy	.	.	.	8a/	-ża	.	.
32E#/yy	.	.	.	.	.	.	.
32AA/yy	.	.	.	.	.	.	.
32E#X/JJJyy	.	.	.	.	.	.	.
*	*	*2\right	*	*	*	*	*
32D\LLLyy	(>4a/]yy	2d\&)yy	.	4a/	dniom.	.	.
32F#\yy	.	.	.	.	.	.	.
32D\yy	.	.	.	.	.	.	.
32F#\yy	.	.	.	.	.	.	.
32D\yy	.	.	.	.	.	.	.
32F#\yy	.	.	.	.	.	.	.
32D\yy	.	.	.	.	.	.	.
32F#\JJJyy	.	.	.	.	.	.	.
32D\LLLyy	8.f#/L)yy	.	.	4r	.	.	.
32A\yy	.	.	.	.	.	.	.
32D\yy	.	.	.	.	.	.	.
32A\yy	.	.	.	.	.	.	.
32D\yy	.	.	.	.	.	.	.
32A\yy	.	.	.	.	.	.	.
32D\yy	16a/Jkyy	.	.	.	.	.	.
32A\JJJyy	.	.	.	.	.	.	.
*Xtremolo	*	*	*	*	*	*	*
*	*v	*v	*	*	*	*	*
=42	=42	=42	=42	=42	=42	=42
2C\yy	16ryy	.	4a/	Dla	.	.
.	(<16E</LLyy	.	.	.	.	.
.	16A</yy	.	.	.	.	.
.	16c</JJyy	.	.	.	.	.
!!mixed beam:problem
!	!LO:TX:t=P:problem:mixed beam	!	!	!	!	!
.	16e\LLyy	.	8cc\	mej	.	.
.	16c</yy	.	.	.	.	.
.	16A</yy	.	8ee\	mi-	.	.
.	16E</JJ)yy	.	.	.	.	.
2BB\yy	16ryy	.	4.dd#X\	-ło-	.	.
.	(<16F#</LLyy	.	.	.	.	.
.	16A</yy	.	.	.	.	.
.	16B</JJyy	.	.	.	.	.
!!mixed beam:problem
!	!LO:TX:t=P:problem:mixed beam	!	!	!	!	!
.	16d#X\LLyy	.	.	.	.	.
.	16B</yy	.	.	.	.	.
.	16A</yy	.	8b\	-ści	.	.
.	16F#</JJ)yy	.	.	.	.	.
=43	=43	=43	=43	=43	=43	=43
2E\yy	16ryy	.	4a/	wzgar-	.	.
.	(<16A</LLyy	.	.	.	.	.
.	16c</yy	.	.	.	.	.
.	16e\JJyy	.	.	.	.	.
!!mixed beam:problem
!	!LO:TX:t=P:problem:mixed beam	!	!	!	!	!
.	16a\LLyy	.	8g/	-dzę	.	.
.	16e\yy	.	.	.	.	.
.	16c</yy	.	8a/	cier-	.	.
.	16A</JJ)yy	.	.	.	.	.
2D#X\yy	16ryy	.	4b/	-pie-	.	.
!!mixed beam:problem
!	!LO:TX:t=P:problem:mixed beam	!	!	!	!	!
.	(>16B</LLyy	.	.	.	.	.
.	16f#\yy	.	.	.	.	.
.	16a\JJyy	.	.	.	.	.
.	16b\LLyy	.	8f#/	-niem	.	.
.	16a\yy	.	.	.	.	.
.	16f#\yy	.	8r	.	.	.
.	16B</JJ)yy	.	.	.	.	.
!!LO:LB:g=original
=44	=44	=44	=44	=44	=44	=44
(>4F#\yy	16ryy	.	4a\	jej	.	.
.	(<16c/LLyy	.	.	.	.	.
.	16e/yy	.	.	.	.	.
.	16a/JJyy	.	.	.	.	.
4E\yy	16cc/LLyy	.	8cc\	źró-	.	.
.	16a/yy	.	.	.	.	.
.	16e/yy	.	8ee\	-dło	.	.
.	16c/JJ)yy	.	.	.	.	.
2BB/)yy	16ryy	.	(>16dd#X\LL	w nie-	.	.
.	(<16B/LLyy	.	[>16ff#\JJ)	.	.	.
.	16f#/yy	.	4ff#\]	.	.	.
.	16a/JJyy	.	.	.	.	.
.	16b/LLyy	.	.	.	.	.
.	16a/yy	.	.	.	.	.
.	16f#/yy	.	8b\	-bie,	.	.
.	16B/JJ)yy	.	.	.	.	.
=45	=45	=45	=45	=45	=45	=45
2C/yy	16ryy	.	4a/	tam	.	.
.	(<16e/LLyy	.	.	.	.	.
.	16a/yy	.	.	.	.	.
.	16e/JJyy	.	.	.	.	.
.	16ee/LLyy	.	16g#X/LL	zło-	.	.
.	16a/yy	.	16a/JJ	.	.	.
.	16e/yy	.	16b\LL	-żę	.	.
.	16a/JJ)yy	.	16cc\JJ	.	.	.
2c\yy	16ryy	.	[>4dd\	ją	.	.
.	(<16d/LLyy	.	.	.	.	.
.	16f#/yy	.	.	.	.	.
.	16a/JJyy	.	.	.	.	.
.	16dd/LLyy	.	8dd\]	.	.	.
.	16a/yy	.	.	.	.	.
.	16f#/yy	.	8r	.	.	.
.	16d/JJ)yy	.	.	.	.	.
=46	=46	=46	=46	=46	=46	=46
4B^>\yy	16ryy	.	4dd\	pierś	.	.
.	(<16d/LLyy	.	.	.	.	.
.	16g/yy	.	.	.	.	.
.	16dd/JJ)yy	.	.	.	.	.
.	.	.	8qff#/	.	.	.
4A^>\yy	16ryy	.	8.ee\	ko-	.	.
.	(<16d/LLyy	.	.	.	.	.
.	16f#/yy	.	.	.	.	.
.	16cc/JJ)yy	.	16dd\	-na-	.	.
2G^>\yy	16ryy	.	4.gg\	-ją-	.	.
.	(<16B/LLyy	.	.	.	.	.
.	16d/yy	.	.	.	.	.
.	16g/JJyy	.	.	.	.	.
.	16b/LLyy	.	.	.	.	.
.	16g/yy	.	.	.	.	.
.	16d/yy	.	8b\	-ca	.	.
.	16B/JJ)yy	.	.	.	.	.
=47	=47	=47	=47	=47	=47	=47
(>2BB^</yy	16ryy	.	4ff#\	z o-	.	.
.	(<16B/LLyy	.	.	.	.	.
.	16f#/yy	.	.	.	.	.
.	16a/JJyy	.	.	.	.	.
!	!	!	!	!LO:SIC:v:s:t=z ostat-nim	!	!
.	16b/LLyy	.	8.ee\	-sta-	.	.
.	16a/yy	.	.	.	.	.
.	16f#/yy	.	.	.	.	.
.	16B/JJ)yy	.	16dd#X\	-tnim	.	.
2E\)yy	16ryy	.	4ff#\	tchnie-	.	.
.	(<16B/LLyy	.	.	.	.	.
.	16e/yy	.	.	.	.	.
.	16g/JJyy	.	.	.	.	.
.	16b/LLyy	.	16ee\	-niem	.	.
.	16g/yy	.	16r	.	.	.
.	16e/yy	.	8ee\	za-	.	.
.	16B/JJ)yy	.	.	.	.	.
!!LO:LB:g=original
=48	=48	=48	=48	=48	=48	=48
4GG/yy	16ryy	.	4.ffn^>\	-wo-	.	.
.	(<16d/LLyy	.	.	.	.	.
.	16fn/yy	.	.	.	.	.
.	16g/JJyy	.	.	.	.	.
4D:\yy 4Fn:yy 4G:yy 4B:yy	16b/LLyy	.	.	.	.	.
.	16g/yy	.	.	.	.	.
.	16f/yy	.	8b\	-ła	.	.
.	16d/JJ)yy	.	.	.	.	.
!	!LO:TX:b:t=cres_cen_do.:problem:dynamics with extention lines	!LO:HP:b:t=cres-cen-do.:ext=ud	!	!	!	!
(>4C^<:\yy 4E:yy 4G:yy 4c:yy	16ryy	<	4dd\	je-	.	.
.	(<16e/LLyy	.	.	.	.	.
.	16g/yy	.	.	.	.	.
.	16cc/JJ)yy	.	.	.	.	.
8BB/L)yy	16ryy	.	16cc\	-szcze:	.	.
.	(<16e/LLyy	.	16r	.	.	.
!	!	!	!LO:TX:a:t=piu largo	!	!	!
8BB-X/Jyy	16g/yy	.	8ee\	ja	.	.
.	16cc/JJ)yy	.	.	.	.	.
=49	=49	=49	=49	=49	=49	=49
(<4AA/yy	16ryy	.	4.gg^>\	ko-	.	.
.	(<16e/LLyy	.	.	.	.	.
.	16g/yy	.	.	.	.	.
.	16cc#X/JJyy	.	.	.	.	.
4AA#X:/yy 4E:yy 4G:yy 4c#X:yy	16ee/LLyy	.	.	.	.	.
.	16cc#/yy	.	.	.	.	.
.	16g/yy	.	8ff#\	-cham!	.	.
.	16e/JJ)yy	.	.	.	.	.
.	.	.	8qaa/	.	.	.
8BB:/)yy 8D:yy 8G:yy 8d:yy	16ryy	.	4.gg\	ko-	.	.
.	(<16d/LLyy	.	.	.	.	.
8ryy	16g/yy	.	.	.	.	.
.	16dd/JJ)yy	.	.	.	.	.
4BBB/yy 4BByy	16ryy	[	.	.	.	.
.	(<16d#X/LLyy	.	.	.	.	.
.	16g/yy	.	8dd#X\	-cham	.	.
.	16dd#X/JJ)yy	.	.	.	.	.
=50	=50	=50	=50	=50	=50	=50
!	!	!	!LO:TX:a:t=accel&colon;	!	!	!
4CC^</ 4C	16r	.	(>4ff#\	go!	.	.
!	!	!LO:DY:rj	!	!	!	!
.	(<16f#/LL	f	.	.	.	.
.	16a/	.	.	.	.	.
.	16dd#X/JJ)	.	.	.	.	.
4GG#X^</ 4G#X	16r	.	8ee\)	.	.	.
.	(<16e/LL	.	.	.	.	.
.	16b/	.	16r	.	.	.
.	16ee/JJ)	.	16b\	za-	.	.
4AA^</ 4A	16r	.	(>4dd^>\	-wo-	.	.
.	(<16e/LL	.	.	.	.	.
.	16a/	.	.	.	.	.
.	16dd#/JJ)	.	.	.	.	.
4FF#^</ 4F#	16r	.	8cc\)	-ła:	.	.
.	(<16e/LL	.	.	.	.	.
.	16a/	.	16r	.	.	.
.	16cc/JJ)	.	16a/	ja	.	.
=51	=51	=51	=51	=51	=51	=51
[<4BB/	(<16g/LL 16b	.	8.g/L	ko-	.	.
.	16e/	.	.	.	.	.
.	16B/	.	.	.	.	.
.	16e/JJ)	.	16a/Jk	.	.	.
8BB/]	8e^</ 8g	.	16a#X/LL	-cham!	.	.
.	.	.	16b/JJ	.	.	.
8r	8r	.	16ee\LL	ja	.	.
.	.	.	16gg\JJ	.	.	.
4r	4r	.	4.bb;>\	ko-	.	.
4BBB;>/ 4BB	4B^<;>/ 4d#X 4a 4b	.	.	.	.	.
.	.	.	8dd#X\	-cham	.	.
!!LO:LB:g=original
=52	=52	=52	=52	=52	=52	=52
!	!	!LO:DY:rj	!	!	!	!
12EE/ 12E	(>4g\ 4b 4ee 4gg	f <	4ee\	go!_	.	.
(<12G\L	.	.	.	.	.	.
12B\J	.	.	.	.	.	.
12E\L	8a\L 8aa	.	4r	.	.	.
12G\	.	.	.	.	.	.
.	8a#X\J 8aa#X	.	.	.	.	.
12B\J	.	.	.	.	.	.
12D\L	4b\ 4bb	.	2r	.	.	.
12F#\	.	.	.	.	.	.
12B\J	.	.	.	.	.	.
12D\L	8cc#X\L 8ccc#X	.	.	.	.	.
12F#\	.	.	.	.	.	.
.	8dd\J 8ddd	[[	.	.	.	.
12B\J	.	.	.	.	.	.
=53	=53	=53	=53	=53	=53	=53
12C#X\L	4ee\) 4eee	ff	1r	.	.	.
12E\	.	.	.	.	.	.
12G\J	.	.	.	.	.	.
12FF#/L	8.ff#^>\L 8.aa#X 8.fff#	.	.	.	.	.
12C#/	.	.	.	.	.	.
12F#/J	.	.	.	.	.	.
.	16ee\Jk 16eee	.	.	.	.	.
12BB/L	(<4ee\ (>4eee	.	.	.	.	.
12F#/	.	.	.	.	.	.
12B/J	.	.	.	.	.	.
12BB/L	8dd#X\L)) 8ddd#X	.	.	.	.	.
12F#/	.	.	.	.	.	.
.	16r	.	.	.	.	.
12B/J)	.	.	.	.	.	.
.	16bb\Jk	.	.	.	.	.
=54	=54	=54	=54	=54	=54	=54
(>12E\L	(<4ddn\ 4gg#X (>4dddn^>	.	1r	.	.	.
12B\	.	.	.	.	.	.
12E\J	.	.	.	.	.	.
12AA\L	8cc\L)) 8aa 8ccc	.	.	.	.	.
12E\	.	.	.	.	.	.
.	16r	.	.	.	.	.
12A\J	.	.	.	.	.	.
!	!	!LO:HP:a	!	!	!	!
.	16ee\Jk	>	.	.	.	.
12BB\L	4gn\ 4b (>4ggn	.	.	.	.	.
12E\	.	.	.	.	.	.
12G\J	.	.	.	.	.	.
12E\L	8b\L)	.	.	.	.	.
12G\	.	.	.	.	.	.
.	16r	.	.	.	.	.
12E\J	.	.	.	.	.	.
.	32a\LL	.	.	.	.	.
.	32b\JJJ	.	.	.	.	.
=55	=55	=55	=55	=55	=55	=55
*	*^	*	*	*	*	*
12AA\L	(>4.f#^>/ 4.cc	(<4e\ [>4f#	.	1r;>	.	.	.
12F#\	.	.	.	.	.	.	.
12A\J)	.	.	.	.	.	.	.
12BB\L	.	4d#X\) 4f#]	.	.	.	.	.
12F#\	.	.	.	.	.	.	.
!	!LO:TX:a:t=molto	!	!	!	!	!	!
.	8b/)	.	.	.	.	.	.
12A\J	.	.	.	.	.	.	.
*ped	*	*	*	*	*	*	*
!	!	!	!LO:DY:rj	!	!	!	!
8E\ 8G	(>36e/LLL	2ryy	p	.	.	.	.
!	!LO:TX:a:t=ralent	!	!	!	!	!	!
.	36B/	.	.	.	.	.	.
.	36G/	.	>	.	.	.	.
.	36E</	.	.	.	.	.	.
.	36G/	.	.	.	.	.	.
8r	.	.	.	.	.	.	.
.	36B/	.	.	.	.	.	.
.	36e/	.	.	.	.	.	.
.	36g/	.	.	.	.	.	.
.	36b/JJJ	.	.	.	.	.	.
!	!LO:TX:t=P:problem:pp[ianissimo]=pp.	!	!	!	!	!	!
4ryy	8g/ 8b 8ee)	.	] pp	.	.	.	.
!LO:TX:b:t=[coda]	!LO:TX:b:t==B:color=blue	!	!	!	!	!	!
.	8r;>	.	.	.	.	.	.
*	*v	*v	*	*	*	*	*
==	==	==	==	==	==	==
*-	*-	*-	*-	*-	*-	*-
!!!system-decoration: {(g1,g2)}
!!!ENC: Andrzej Gręziak
!!!END: 2021-09-07
!!!EED: Jędrzej Mróz
!!!ESR: 2021-09-24
!!!RDF**kern: > = above
!!!RDF**kern: < = below
!!!RDF**kern: @ = marked note, color=blue
!!!RDF**dynam: > = "dimin", fontstyle="normal"
